X:1
T: Drogheda Lasses
P:O'Neill's version
R:Reel
Q: 232
K:D
M:4/4
L:1/8
|:dD ((3DDD) AB AF|Dg fe dc Bc|dD ((3DDD) AB AF|BE EF GA Bc|
dD ((3DDD) AB AF|Dg fe dc Bc|dB cA BG AF|BE EF GA Bc|
d2 fd fa fd|Ad fa ge ce|d2 fd fa fd|BE EF GA Bc|
d2 fd fa fd|Ad fa ge ce|f2 ec dA BG|FA Bc d2 d2:|
